X: 1
T: John Grumlie
O: Trad
B: RSCDS Grad 02
B: RSCDS Originally Ours p.145
R: jig
Z: 2007 John Chambers <jc:trillian.mit.edu>
M: 6/8
L: 1/8
K: Bb
F \
| "Bb"D2F "F7"F2G | "Gm"F2G "F7"B2B/c/ | "Bb"d2B "G7"e2d | "C7"d3 "F"c2F \
| "Bb"D2F "F7"F2G | "Bb"FGA "Eb"B2c    | "Bb"d2f "F7"edc | "Bb"B3- B2 ||
|: B/c/ \
| "Bb"d2d "Gm"B2B | "Cm"e3 "F7"c2c | "Bb"d2B "G7"e2d | "C7"d3 "F"c2F \
| "Bb"D2F "F7"F2G | "Bb"F3 "Eb"e2e | "Bb"d2f "F7"edc | "Bb"B3- B2 :|
